img/social-03.svg

<svg width="35" height="25" viewBox="0 0 35 25" fill="none" xmlns="http://www.w3.org/2000/svg">
<path d="M33.4561 4.54718C33.0646 3.06905 31.9113 1.90493 30.447 1.50987C27.7927 0.791992 17.1495 0.791992 17.1495 0.791992C17.1495 0.791992 6.50643 0.791992 3.85213 1.50987C2.38778 1.90499 1.23447 3.06905 0.843039 4.54718C0.131836 7.22637 0.131836 12.8162 0.131836 12.8162C0.131836 12.8162 0.131836 18.4061 0.843039 21.0853C1.23447 22.5634 2.38778 23.6791 3.85213 24.0741C6.50643 24.792 17.1495 24.792 17.1495 24.792C17.1495 24.792 27.7927 24.792 30.447 24.0741C31.9113 23.6791 33.0646 22.5634 33.4561 21.0853C34.1673 18.4061 34.1673 12.8162 34.1673 12.8162C34.1673 12.8162 34.1673 7.22637 33.4561 4.54718ZM13.6686 17.8914V7.74105L22.5642 12.8164L13.6686 17.8914Z" fill="white"/>
</svg>

<svg width="35" height="25" fill="none" xmlns="http://www.w3.org/2000/svg"><path d="M33.456 4.547a4.283 4.283 0 00-3.009-3.037C27.793.792 17.15.792 17.15.792s-10.644 0-13.298.718A4.283 4.283 0 00.843 4.547c-.711 2.68-.711 8.27-.711 8.27s0 5.59.711 8.268c.391 1.478 1.545 2.594 3.01 2.99 2.653.717 13.296.717 13.296.717s10.644 0 13.298-.718c1.464-.395 2.618-1.51 3.01-2.989.71-2.679.71-8.269.71-8.269s0-5.59-.71-8.269zM13.67 17.891V7.741l8.895 5.075-8.895 5.075z" fill="#fff"/></svg>
